src/images/icons/link.svg

<?xml version="1.0" encoding="iso-8859-1"?>
<!-- Generator: Adobe Illustrator 19.0.0, SVG Export Plug-In . SVG Version: 6.00 Build 0)  -->
<svg version="1.1" id="Layer_1" xmlns="http://www.w3.org/2000/svg" xmlns:xlink="http://www.w3.org/1999/xlink" x="0px" y="0px"
	 viewBox="0 0 512.092 512.092" style="enable-background:new 0 0 512.092 512.092;" xml:space="preserve">
<g>
	<g>
		<path d="M312.453,199.601c-6.066-6.102-12.792-11.511-20.053-16.128c-19.232-12.315-41.59-18.859-64.427-18.859
			c-31.697-0.059-62.106,12.535-84.48,34.987L34.949,308.23c-22.336,22.379-34.89,52.7-34.91,84.318
			c-0.042,65.98,53.41,119.501,119.39,119.543c31.648,0.11,62.029-12.424,84.395-34.816l89.6-89.6
			c1.628-1.614,2.537-3.816,2.524-6.108c-0.027-4.713-3.87-8.511-8.583-8.484h-3.413c-18.72,0.066-37.273-3.529-54.613-10.581
			c-3.195-1.315-6.867-0.573-9.301,1.877l-64.427,64.512c-20.006,20.006-52.442,20.006-72.448,0
			c-20.006-20.006-20.006-52.442,0-72.448l108.971-108.885c19.99-19.965,52.373-19.965,72.363,0
			c13.472,12.679,34.486,12.679,47.957,0c5.796-5.801,9.31-13.495,9.899-21.675C322.976,216.108,319.371,206.535,312.453,199.601z"
			/>
	</g>
</g>
<g>
	<g>
		<path d="M477.061,34.993c-46.657-46.657-122.303-46.657-168.96,0l-89.515,89.429c-2.458,2.47-3.167,6.185-1.792,9.387
			c1.359,3.211,4.535,5.272,8.021,5.205h3.157c18.698-0.034,37.221,3.589,54.528,10.667c3.195,1.315,6.867,0.573,9.301-1.877
			l64.256-64.171c20.006-20.006,52.442-20.006,72.448,0c20.006,20.006,20.006,52.442,0,72.448l-80.043,79.957l-0.683,0.768
			l-27.989,27.819c-19.99,19.965-52.373,19.965-72.363,0c-13.472-12.679-34.486-12.679-47.957,0
			c-5.833,5.845-9.35,13.606-9.899,21.845c-0.624,9.775,2.981,19.348,9.899,26.283c9.877,9.919,21.433,18.008,34.133,23.893
			c1.792,0.853,3.584,1.536,5.376,2.304c1.792,0.768,3.669,1.365,5.461,2.048c1.792,0.683,3.669,1.28,5.461,1.792l5.035,1.365
			c3.413,0.853,6.827,1.536,10.325,2.133c4.214,0.626,8.458,1.025,12.715,1.195h5.973h0.512l5.12-0.597
			c1.877-0.085,3.84-0.512,6.059-0.512h2.901l5.888-0.853l2.731-0.512l4.949-1.024h0.939c20.961-5.265,40.101-16.118,55.381-31.403
			l108.629-108.629C523.718,157.296,523.718,81.65,477.061,34.993z"/>
	</g>
</g>
<g>
</g>
<g>
</g>
<g>
</g>
<g>
</g>
<g>
</g>
<g>
</g>
<g>
</g>
<g>
</g>
<g>
</g>
<g>
</g>
<g>
</g>
<g>
</g>
<g>
</g>
<g>
</g>
<g>
</g>
</svg>

<?xml version="1.0" encoding="UTF-8"?>
<svg width="513px" height="513px" viewBox="0 0 513 513" version="1.1" xmlns="http://www.w3.org/2000/svg" xmlns:xlink="http://www.w3.org/1999/xlink">
    <title>link</title>
    <g id="Page-1" stroke="none" stroke-width="1" fill="none" fill-rule="evenodd">
        <g id="link" fill="#586ED3" fill-rule="nonzero">
            <path d="M312.453,199.601 C306.387,193.499 299.661,188.09 292.4,183.473 C273.168,171.158 250.81,164.613794 227.973,164.613794 C196.276,164.555 165.867,177.149 143.493,199.601 L34.949,308.23 C12.613,330.609 0.059,360.93 0.0389752658,392.548 C-0.003,458.528 53.449,512.049 119.429,512.091718 C151.077,512.201 181.458,499.667 203.824,477.275 L293.424,387.675 C295.052,386.061 295.961,383.859 295.948,381.567 C295.921,376.854 292.078,373.056 287.365,373.083 L283.952,373.083 C265.232,373.149 246.679,369.554 229.339,362.502 C226.144,361.187 222.472,361.929 220.038,364.379 L155.611,428.891 C135.605,448.897 103.169,448.897 83.163,428.891 C63.157,408.885 63.157,376.449 83.163,356.443 L192.134,247.558 C212.124,227.593 244.507,227.593 264.497,247.558 C277.969,260.237 298.983,260.237 312.454,247.558 C318.25,241.757 321.764,234.063 322.353,225.883 C322.976,216.108 319.371,206.535 312.453,199.601 Z" id="Path"></path>
            <path d="M477.061,34.993 C430.404,-11.664 354.758,-11.664 308.101,34.993 L218.586,124.422 C216.128,126.892 215.419,130.607 216.794,133.809 C218.153,137.02 221.329,139.081 224.815,139.014 L227.972,139.014 C246.67,138.98 265.193,142.603 282.5,149.681 C285.695,150.996 289.367,150.254 291.801,147.804 L356.057,83.633 C376.063,63.627 408.499,63.627 428.505,83.633 C448.511,103.639 448.511,136.075 428.505,156.081 L348.462,236.038 L347.779,236.806 L319.79,264.625 C299.8,284.59 267.417,284.59 247.427,264.625 C233.955,251.946 212.941,251.946 199.47,264.625 C193.637,270.47 190.12,278.231 189.571,286.47 C188.947,296.245 192.552,305.818 199.47,312.753 C209.347,322.672 220.903,330.761 233.603,336.646 C235.395,337.499 237.187,338.182 238.979,338.95 C240.771,339.718 242.648,340.315 244.44,340.998 C246.232,341.681 248.109,342.278 249.901,342.79 L254.936,344.155 C258.349,345.008 261.763,345.691 265.261,346.288 C269.475,346.914 273.719,347.313 277.976,347.483 L283.949,347.483 L284.461,347.483 L289.581,346.886 C291.458,346.801 293.421,346.374 295.64,346.374 L298.541,346.374 L304.429,345.521 L307.16,345.009 L312.109,343.985 L313.048,343.985 C334.009,338.72 353.149,327.867 368.429,312.582 L477.058,203.953 C523.718,157.296 523.718,81.65 477.061,34.993 Z" id="Path"></path>
        </g>
    </g>
</svg>
